svg/logo-wnyc-stacked.svg

<svg viewBox="0 0 211 61" fill="none" xmlns="http://www.w3.org/2000/svg"><path d="M150.9 34.6 150.8 59.9H143.8L134.2 48.3 134.1 59.8H125.8L125.9 34.5H132.9L142.5 46.1 142.6 34.6H150.9ZM173.6 50.8V60H165.1V50.7L155.6 34.6H164.6L169.7 43.4 175 34.7H183.3L173.6 50.8ZM191.5 59C189.4 57.9 187.7 56.3 186.5 54.3 185.3 52.3 184.7 50 184.7 47.4 184.7 44.8 185.3 42.6 186.6 40.5 187.8 38.5 189.5 36.9 191.7 35.8 193.9 34.7 196.3 34.1 198.9 34.1 201.4 34.1 203.6 34.6 205.5 35.4 207.4 36.3 209 37.5 210.3 39.2L204.9 44C203.3 42 201.5 41 199.4 41 197.6 41 196.2 41.6 195.1 42.7 194 43.8 193.5 45.4 193.5 47.3 193.5 49.2 194 50.8 195.1 51.9 196.2 53.1 197.6 53.6 199.4 53.6 201.5 53.6 203.4 52.6 205 50.7L210.4 55.5C209.1 57.1 207.5 58.4 205.6 59.2 203.7 60.1 201.5 60.5 199 60.5 196.1 60.7 193.7 60.1 191.5 59Z" fill="currentColor"/><path d="M40.6.600006 32.2 25.9H25.9L20.4 8.70001 14.6 25.8H8.29998L.0999756.399994H6.19997L11.8 18.2 17.9.399994H23.3L29 18.4 35 .5 40.6.600006ZM50.9 24.7C48.8 23.6 47.1 22 46 20 44.8 18 44.2 15.8 44.2 13.3 44.2 10.8 44.8 8.60001 46 6.60001 47.2 4.60001 48.9 3.09999 51 1.89999 53.1.799994 55.5.200012 58.1.200012 60.7.200012 63.1.799994 65.2 1.89999 67.3 2.99999 68.9 4.60001 70.1 6.60001 71.3 8.60001 71.8999 10.8 71.8999 13.3 71.8999 15.8 71.3 18 70.1 20 68.9 22 67.2 23.5 65.1 24.7 63 25.8 60.6 26.4 58 26.4 55.4 26.4 53 25.9 50.9 24.7ZM62.1 20.4C63.3 19.7 64.3 18.8 65 17.5 65.7 16.3 66 14.9 66.1 13.3 66.2 11.7 65.8 10.3 65.1 9.10001 64.4 7.90001 63.5 6.90001 62.3 6.20001 61.1 5.50001 59.7 5.20001 58.2 5.10001 56.7 5.10001 55.4 5.40001 54.1 6.10001 52.9 6.80001 51.9 7.7 51.2 9 50.5 10.2 50.2 11.6 50.1 13.2 50.1 14.8 50.4 16.2 51.1 17.4 51.8 18.6 52.6999 19.6 53.8999 20.3 55.0999 21 56.4999 21.3 57.8999 21.3 59.5999 21.5 60.9 21.1 62.1 20.4ZM94.6 26.2 89.7 19.1H89.4 84.3V26.2H78.4L78.5.899994H89.5C91.7.899994 93.7 1.3 95.3 2 96.9 2.8 98.2 3.80001 99.1 5.20001 100 6.60001 100.4 8.20001 100.4 10.1 100.4 12 99.9 13.6 99 15 98.1 16.4 96.8 17.4 95.1 18.1L100.7 26.3 94.6 26.2ZM93.2 6.79999C92.3 5.99999 90.9 5.60001 89.2 5.60001H84.4V14.4H89.2C91 14.4 92.3 14 93.2 13.3 94.1 12.5 94.6 11.4 94.6 10 94.6 8.6 94.2 7.49999 93.2 6.79999ZM117.6 16.3 114.2 19.8V26.2H108.4L108.5.899994H114.3L114.2 12.7 125.5.899994H132L121.5 12.1 132.6 26.2H125.8L117.6 16.3ZM139.5 1.10001H145.4L145.3 26.4H139.4L139.5 1.10001ZM177.9 1.20001 177.8 26.5H173L160.4 11.1 160.3 26.5H154.5L154.6 1.20001H159.5L172 16.6 172.1 1.20001H177.9ZM203.7 13.6H209.1V23.9C207.7 24.9 206.1 25.7 204.3 26.3 202.5 26.9 200.7 27.1 198.8 27.1 196.2 27.1 193.8 26.5 191.7 25.4 189.6 24.3 188 22.7 186.8 20.7 185.6 18.7 185 16.5 185 13.9 185 11.3 185.6 9.10001 186.8 7.20001 188 5.20001 189.7 3.70001 191.8 2.60001 193.9 1.50001 196.3.899994 199 .899994 201.2.899994 203.2 1.3 205 2 206.8 2.8 208.3 3.79999 209.5 5.29999L205.7 8.79999C203.9 6.89999 201.7 5.89999 199.2 5.89999 197.6 5.89999 196.1 6.19999 194.9 6.89999 193.6 7.59999 192.7 8.50001 192 9.70001 191.3 10.9 190.9 12.3 190.9 13.9 190.9 15.5 191.2 16.9 191.9 18.1 192.6 19.3 193.6 20.3 194.8 21 196 21.7 197.5 22 199 22.1 200.7 22.1 202.2 21.8 203.6 21L203.7 13.6Z"/></svg>

<svg viewBox="0 0 211 61" fill="none" xmlns="http://www.w3.org/2000/svg"><path d="M150.9 34.6l-.1 25.3h-7l-9.6-11.6-.1 11.5h-8.3l.1-25.3h7l9.6 11.6.1-11.5h8.3zM173.6 50.8V60h-8.5v-9.3l-9.5-16.1h9l5.1 8.8 5.3-8.7h8.3l-9.7 16.1zM191.5 59c-2.1-1.1-3.8-2.7-5-4.7-1.2-2-1.8-4.3-1.8-6.9 0-2.6.6-4.8 1.9-6.9 1.2-2 2.9-3.6 5.1-4.7 2.2-1.1 4.6-1.7 7.2-1.7 2.5 0 4.7.5 6.6 1.3 1.9.9 3.5 2.1 4.8 3.8l-5.4 4.8c-1.6-2-3.4-3-5.5-3-1.8 0-3.2.6-4.3 1.7-1.1 1.1-1.6 2.7-1.6 4.6 0 1.9.5 3.5 1.6 4.6 1.1 1.2 2.5 1.7 4.3 1.7 2.1 0 4-1 5.6-2.9l5.4 4.8c-1.3 1.6-2.9 2.9-4.8 3.7-1.9.9-4.1 1.3-6.6 1.3-2.9.2-5.3-.4-7.5-1.5z" fill="currentColor"/><path d="M40.6.6l-8.4 25.3h-6.3L20.4 8.7l-5.8 17.1H8.3L.1.4h6.1l5.6 17.8L17.9.4h5.4l5.7 18L35 .5l5.6.1zM50.9 24.7C48.8 23.6 47.1 22 46 20c-1.2-2-1.8-4.2-1.8-6.7s.6-4.7 1.8-6.7c1.2-2 2.9-3.5 5-4.7C53.1.8 55.5.2 58.1.2c2.6 0 5 .6 7.1 1.7 2.1 1.1 3.7 2.7 4.9 4.7 1.2 2 1.8 4.2 1.8 6.7s-.6 4.7-1.8 6.7c-1.2 2-2.9 3.5-5 4.7-2.1 1.1-4.5 1.7-7.1 1.7-2.6 0-5-.5-7.1-1.7zm11.2-4.3c1.2-.7 2.2-1.6 2.9-2.9.7-1.2 1-2.6 1.1-4.2.1-1.6-.3-3-1-4.2-.7-1.2-1.6-2.2-2.8-2.9-1.2-.7-2.6-1-4.1-1.1-1.5 0-2.8.3-4.1 1-1.2.7-2.2 1.6-2.9 2.9-.7 1.2-1 2.6-1.1 4.2 0 1.6.3 3 1 4.2.7 1.2 1.6 2.2 2.8 2.9 1.2.7 2.6 1 4 1 1.7.2 3-.2 4.2-.9zM94.6 26.2l-4.9-7.1H84.3v7.1h-5.9L78.5.9h11c2.2 0 4.2.4 5.8 1.1 1.6.8 2.9 1.8 3.8 3.2.9 1.4 1.3 3 1.3 4.9 0 1.9-.5 3.5-1.4 4.9-.9 1.4-2.2 2.4-3.9 3.1l5.6 8.2-6.1-.1zM93.2 6.8c-.9-.8-2.3-1.2-4-1.2h-4.8v8.8h4.8c1.8 0 3.1-.4 4-1.1.9-.8 1.4-1.9 1.4-3.3s-.4-2.5-1.4-3.2zM117.6 16.3l-3.4 3.5v6.4h-5.8l.1-25.3h5.8l-.1 11.8L125.5.9h6.5l-10.5 11.2 11.1 14.1h-6.8l-8.2-9.9zM139.5 1.1h5.9l-.1 25.3h-5.9l.1-25.3zM177.9 1.2l-.1 25.3H173l-12.6-15.4-.1 15.4h-5.8l.1-25.3h4.9L172 16.6l.1-15.4h5.8zM203.7 13.6h5.4v10.3c-1.4 1-3 1.8-4.8 2.4-1.8.6-3.6.8-5.5.8-2.6 0-5-.6-7.1-1.7-2.1-1.1-3.7-2.7-4.9-4.7-1.2-2-1.8-4.2-1.8-6.8 0-2.6.6-4.8 1.8-6.7 1.2-2 2.9-3.5 5-4.6 2.1-1.1 4.5-1.7 7.2-1.7 2.2 0 4.2.4 6 1.1 1.8.8 3.3 1.8 4.5 3.3l-3.8 3.5c-1.8-1.9-4-2.9-6.5-2.9-1.6 0-3.1.3-4.3 1-1.3.7-2.2 1.6-2.9 2.8-.7 1.2-1.1 2.6-1.1 4.2s.3 3 1 4.2c.7 1.2 1.7 2.2 2.9 2.9 1.2.7 2.7 1 4.2 1.1 1.7 0 3.2-.3 4.6-1.1l.1-7.4z"/></svg>
